src/rowercollab/Assets/SpeakEZbwIcon.svg

<?xml version="1.0" encoding="UTF-8" standalone="no"?>
<!-- Generator: Adobe Illustrator 24.2.3, SVG Export Plug-In . SVG Version: 6.00 Build 0)  -->

<svg
   version="1.1"
   id="Layer_1"
   x="0px"
   y="0px"
   viewBox="0 0 100.26677 97.671631"
   xml:space="preserve"
   width="100.26677"
   height="97.671631"
   sodipodi:docname="SpeakEZbwIcon.svg"
   inkscape:version="1.3.2 (091e20e, 2023-11-25, custom)"
   xmlns:inkscape="http://www.inkscape.org/namespaces/inkscape"
   xmlns:sodipodi="http://sodipodi.sourceforge.net/DTD/sodipodi-0.dtd"
   xmlns="http://www.w3.org/2000/svg"
   xmlns:svg="http://www.w3.org/2000/svg"><sodipodi:namedview
   id="namedview1"
   pagecolor="#ffffff"
   bordercolor="#000000"
   borderopacity="0.25"
   inkscape:showpageshadow="2"
   inkscape:pageopacity="0.0"
   inkscape:pagecheckerboard="0"
   inkscape:deskcolor="#d1d1d1"
   inkscape:zoom="19.381267"
   inkscape:cx="50.151519"
   inkscape:cy="53.427878"
   inkscape:window-width="3840"
   inkscape:window-height="2089"
   inkscape:window-x="-8"
   inkscape:window-y="-8"
   inkscape:window-maximized="1"
   inkscape:current-layer="g9" /><defs
   id="defs9"><inkscape:path-effect
     effect="spiro"
     id="path-effect5"
     is_visible="true"
     lpeversion="1" /><inkscape:path-effect
     effect="spiro"
     id="path-effect4"
     is_visible="true"
     lpeversion="1" /><inkscape:path-effect
     effect="spiro"
     id="path-effect3"
     is_visible="true"
     lpeversion="1" /></defs>

<g
   id="g9"
   transform="matrix(1.1796091,0,0,1.1796091,-193.10201,-307.05225)">
	<path
   id="path8"
   d="M 205.1001 260.3 C 182.30013 260.3 163.7 278.90013 163.7 301.7001 C 163.7 324.50008 182.30013 343.10021 205.1001 343.10021 L 241.99991 343.10021 L 248.70068 343.10021 L 246.09952 337.00046 C 246.09952 336.90046 243.59935 330.79997 243.59935 324.69998 L 243.59935 323.9996 C 243.59935 321.2996 243.60007 317.99962 244.50007 314.39962 C 245.70007 309.89963 246.50021 306.4001 246.50021 301.7001 C 246.50021 278.90013 227.90008 260.3 205.1001 260.3 z M 205.00076 269.39994 C 222.80074 269.39994 237.40026 283.89947 237.40026 301.79945 C 237.40026 305.09944 236.89982 307.70081 235.69982 312.2008 C 234.49982 316.9008 234.49941 321.0006 234.49941 324.1006 L 234.49941 324.69998 C 234.49941 328.09997 235.10082 331.50061 235.80082 334.20061 L 205.00076 334.20061 C 199.6352 334.20061 194.57955 332.88955 190.12394 330.58282 C 190.14828 330.55705 190.17227 330.53055 190.19679 330.505 C 190.36114 330.32989 190.54741 330.13581 190.70345 329.95364 C 191.10144 329.489 191.44733 328.98167 191.74988 328.45023 C 192.17583 327.71826 192.60116 326.9858 192.98671 326.23154 C 194.16579 327.04844 195.55611 327.49983 197.09957 327.49983 L 213.19998 327.49983 C 215.29998 327.49983 217.30035 326.59966 218.70034 324.99967 C 220.00034 323.39967 220.59979 321.30061 220.29979 319.30061 L 218.29966 307.29981 C 221.79965 303.79982 223.89937 298.99926 223.89937 293.99926 C 223.69937 288.69927 221.49962 283.79967 217.79962 280.29967 C 213.99963 276.69968 209.09969 274.99934 203.89969 275.29934 C 194.4997 275.89934 186.79953 283.69955 186.49953 293.19954 C 186.29953 298.49953 188.39924 303.60047 192.09924 307.20047 L 189.99976 319.19961 C 189.69976 321.29961 190.19921 323.29967 191.59921 324.99967 C 191.94523 325.39512 192.32267 325.74746 192.72676 326.05437 C 192.35069 326.82204 191.92198 327.56306 191.49158 328.30121 C 191.18859 328.83081 190.84031 329.33403 190.44184 329.79634 C 190.28858 329.97416 190.09649 330.17321 189.93519 330.34439 C 189.90505 330.37575 189.87566 330.40877 189.84578 330.44042 C 179.58806 325.00335 172.5996 314.22242 172.5996 301.79945 C 172.5996 283.89947 187.20078 269.39994 205.00076 269.39994 z M 205.60179 284.18073 C 207.91644 284.26276 210.04923 285.22511 211.79922 286.80011 C 213.79922 288.6001 214.79942 291.10057 214.79942 293.80057 C 214.69942 296.90057 213.19981 299.80076 210.69981 301.60076 L 208.49934 303.2002 L 210.9995 318.39989 L 199.30005 318.39989 L 201.80021 303.2002 L 199.59974 301.60076 C 196.99974 299.70076 195.49947 296.69988 195.59947 293.39988 C 195.79947 288.49989 199.70007 284.5006 204.60007 284.2006 C 204.93757 284.1756 205.27113 284.16901 205.60179 284.18073 z " />
	
</g>
</svg>

<?xml version="1.0" encoding="UTF-8" standalone="no"?>
<!-- Generator: Adobe Illustrator 24.2.3, SVG Export Plug-In . SVG Version: 6.00 Build 0)  -->

<svg
   version="1.1"
   id="Layer_1"
   x="0px"
   y="0px"
   viewBox="0 0 100.26677 97.671631"
   xml:space="preserve"
   width="100.26677"
   height="97.671631"
   xmlns="http://www.w3.org/2000/svg"
   xmlns:svg="http://www.w3.org/2000/svg"><defs
   id="defs9" />

<g
   id="g9"
   transform="matrix(1.1796091,0,0,1.1796091,-193.10201,-307.05225)">
	<path
   d="m 246.1,337 c 0,-0.1 -2.5,-6.2 -2.5,-12.3 V 324 c 0,-2.7 0,-6 0.9,-9.6 1.2,-4.5 2,-8 2,-12.7 0,-22.8 -18.6,-41.4 -41.4,-41.4 -22.8,0 -41.4,18.6 -41.4,41.4 0,22.8 18.6,41.4 41.4,41.4 h 36.9 6.7 z m -11.6,-12.9 v 0.6 c 0,3.4 0.6,6.8 1.3,9.5 H 205 c -17.9,0 -32.4,-14.5 -32.4,-32.4 0,-17.9 14.6,-32.4 32.4,-32.4 17.8,0 32.4,14.5 32.4,32.4 0,3.3 -0.5,5.9 -1.7,10.4 -1.2,4.7 -1.2,8.8 -1.2,11.9 z"
   id="path8" />
	<path
   d="m 217.8,280.3 c -3.8,-3.6 -8.7,-5.3 -13.9,-5 -9.4,0.6 -17.1,8.4 -17.4,17.9 -0.2,5.3 1.9,10.4 5.6,14 l -2.1,12 c -0.3,2.1 0.2,4.1 1.6,5.8 1.4,1.6 3.3,2.5 5.5,2.5 h 16.1 c 2.1,0 4.1,-0.9 5.5,-2.5 1.3,-1.6 1.9,-3.7 1.6,-5.7 l -2,-12 c 3.5,-3.5 5.6,-8.3 5.6,-13.3 -0.2,-5.3 -2.4,-10.2 -6.1,-13.7 z m -7.1,21.3 -2.2,1.6 2.5,15.2 h -11.7 l 2.5,-15.2 -2.2,-1.6 c -2.6,-1.9 -4.1,-4.9 -4,-8.2 0.2,-4.9 4.1,-8.9 9,-9.2 2.7,-0.2 5.2,0.8 7.2,2.6 2,1.8 3,4.3 3,7 -0.1,3.1 -1.6,6 -4.1,7.8 z"
   id="path9" />
</g>
</svg>
